X:189
T:Masons Rant. Ru1.189
%%VWML:RutherfordVol1-2248-p75-0p75
Z:Transcription by Village Music Project, Steve Mansfield July 2015
F:http://www.village-music-project.org.uk/
F:http://www.vwml.org/record/RutherfordVol1/2248/p75
L:1/8
W:The first Couple foots it casts of[f] and turn .| The
W:second does the same :| Back to Back Cross over
W:and turn .|. Right Hand and Left quite round with
W:the second Couple :|
Q:2/4=60
R:Rant
K:D
|:e | f>dd>A F>GA>B | =c/c/c cG E>Fe>g | f>dd>A F>GA>g | f>ae>f d/d/d d :|
|: e | d>ef>g a>ba>f | g>e=c>g e>cg>e | d>ef>g a>ba>f | g>e=c>e d/d/d d :|]
T:Bread and Cheese. Ru1.190
B:Rutherford's Country Dances Vol 1, 1756
Z:village music project, Steve Mansfield July 2015
M:2/4
L:1/8
W:The first Couple Leads down two Couple and the
W:second Couple follows them and both Couple casts
W:up into their own Places .| the first and second
W:Couple goes Hands four quite round :| Cross over
W:and half figure .|. right hands and Left quite round
W:with the second Couple :|
Q:2/4=60
N:e2 in Mss, amended to balance bar lengths
K:G
|:g | fddd | d2 c2 | BGGG | Bddg |
fddd | e2 d2 | aAAA | ^c2 "NB" e :|
|: g | (3fgf (3efe | (3fgf (3efe | gG2 A | Bd2 g |
(3fgf (3efe | (3fgf (3efe | aAAA | ^c2 "NB" e :|]
